svgs/light/wheelchair-move.svg

<svg xmlns="http://www.w3.org/2000/svg" viewBox="0 0 448 512"><!--! Font Awesome Pro 6.4.0 by @fontawesome - https://fontawesome.com License - https://fontawesome.com/license (Commercial License) Copyright 2023 Fonticons, Inc. --><path d="M368 80a24 24 0 1 0 0-48 24 24 0 1 0 0 48zm0-80a56 56 0 1 1 0 112A56 56 0 1 1 368 0zM199.5 106.9c-11.9-4.9-25.6-2.1-34.7 7l-41.4 41.4c-6.2 6.2-16.4 6.2-22.6 0s-6.2-16.4 0-22.6l41.4-41.4c18.2-18.2 45.6-23.7 69.5-14L313.5 119c31.7 13 40 54.1 15.8 78.4l-49.1 49.1c6.9 7.9 13.1 16.4 18.4 25.6H412.1c20.5 0 35.7 19 31.2 38.9L415.6 435.5c-1.9 8.6-10.5 14.1-19.1 12.1s-14.1-10.5-12.1-19.1L412.1 304H312.7c4.8 15.2 7.3 31.3 7.3 48c0 88.4-71.6 160-160 160S0 440.4 0 352s71.6-160 160-160c5.6 0 11.1 .3 16.5 .8l67.7-67.7-44.7-18.3zm107.2 67.8c8.1-8.1 5.3-21.8-5.3-26.1l-25.1-10.3-62.8 62.8c15.7 5.6 30.3 13.5 43.3 23.4l49.9-49.9zM160 480a128 128 0 1 0 0-256 128 128 0 1 0 0 256z"/></svg>

<svg xmlns="http://www.w3.org/2000/svg" viewBox="0 0 448 512"><!--! Font Awesome Pro 6.3.0 by @fontawesome - https://fontawesome.com License - https://fontawesome.com/license (Commercial License) Copyright 2023 Fonticons, Inc. --><path d="M312 56C312 25.07 337.1 0 368 0C398.9 0 424 25.07 424 56C424 86.93 398.9 112 368 112C337.1 112 312 86.93 312 56zM368 80C381.3 80 392 69.25 392 56C392 42.75 381.3 32 368 32C354.7 32 344 42.75 344 56C344 69.25 354.7 80 368 80zM199.5 106.9C187.6 102 173.9 104.8 164.7 113.9L123.3 155.3C117.1 161.6 106.9 161.6 100.7 155.3C94.44 149.1 94.44 138.9 100.7 132.7L142.1 91.26C160.3 73.03 187.7 67.51 211.6 77.28L313.5 118.1C345.3 131.1 353.5 173.1 329.3 197.3L280.2 246.4C287.1 254.3 293.3 262.9 298.6 271.1H432C436.9 271.1 441.4 274.2 444.5 277.1C447.5 281.8 448.7 286.7 447.6 291.5L415.6 435.5C413.7 444.1 405.2 449.5 396.5 447.6C387.9 445.7 382.5 437.2 384.4 428.5L412.1 304H312.7C317.4 319.2 320 335.3 320 352C320 440.4 248.4 512 160 512C71.63 512 0 440.4 0 352C0 263.6 71.63 192 160 192C165.6 192 171.1 192.3 176.5 192.8L244.2 125.2L199.5 106.9zM301.4 148.6L276.3 138.3L213.5 201.2C229.2 206.7 243.8 214.7 256.8 224.6L306.7 174.7C314.7 166.6 311.1 152.9 301.4 148.6V148.6zM160 480C230.7 480 288 422.7 288 352C288 281.3 230.7 224 160 224C89.31 224 32 281.3 32 352C32 422.7 89.31 480 160 480z"/></svg>
